icons/production/atom.svg

<?xml version="1.0" encoding="UTF-8" standalone="no"?>
<svg width="24px" height="24px" viewBox="0 0 24 24" version="1.1" xmlns="http://www.w3.org/2000/svg">
<!--Generator: Sketch 3.8.3 (29802) - http://www.bohemiancoding.com/sketch-->
    <title>
        atom
    </title>
    <desc>
        Created with Sketch.
    </desc>
    <g id="Page-1" stroke="none" stroke-width="1" fill="none" fill-rule="evenodd">
        <path d="M7.9455941,3.04607335 C6.78754869,3.29547863 6.17460344,4.62025171 6.30483481,6.58162405 C6.34460607,7.14971384 6.33836744,7.09429044 6.45768121,7.82018296 C6.50759024,8.11269531 6.54112286,8.35902151 6.53410441,8.36594944 C6.52786578,8.37595644 6.32433052,8.42522168 6.08804247,8.48064507 C4.51356861,8.83858783 3.35474337,9.37742638 2.65913629,10.0740677 C2.1896795,10.5405479 1.9931627,10.9746978 2.00018116,11.5227736 C2.00330047,11.8314511 2.10701767,12.1701496 2.29651601,12.4957621 C2.45950018,12.7751884 3.04203211,13.3432781 3.42492794,13.5996113 C4.22737153,14.1322917 4.47379735,14.2077291 4.69292918,13.9906542 C4.7865086,13.8990516 4.80600432,13.8528655 4.80600432,13.744328 C4.80600432,13.534181 4.73270043,13.4325714 4.48315529,13.297092 C3.38437685,12.6959021 2.80886337,12.0716192 2.80886337,11.4735084 C2.80886337,11.2564334 2.88528657,11.0593724 3.06854629,10.8230532 C3.55126016,10.1887633 4.71632403,9.6206735 6.27754081,9.25580282 C6.69007012,9.16035142 6.77039246,9.15419326 6.77039246,9.22270274 C6.77039246,9.31122622 7.10337926,10.3627312 7.31627245,10.9377489 L7.52916565,11.5158457 L7.26636342,12.0123469 C7.12287497,12.2848453 6.91700023,12.6989812 6.81016372,12.9360702 C5.28247957,16.2583947 5.02903529,18.8963943 6.13405235,19.9809994 C6.39373527,20.2373326 6.60662846,20.3558771 6.95599166,20.4444005 C7.76155456,20.6483894 8.82680037,20.342791 10.0214977,19.5637844 C10.4379262,19.291286 10.5307258,19.1889067 10.5307258,19.0087807 C10.5307258,18.7917057 10.2913184,18.5815587 10.0776454,18.6146588 C10.0175986,18.6246658 9.78442985,18.7524475 9.56139888,18.8971641 C9.06854723,19.2220068 8.51642861,19.4921958 8.11637655,19.6099705 C7.70696656,19.728515 7.26402394,19.7346732 7.01135949,19.6261357 C6.23543007,19.2874372 6.0560695,17.9210966 6.53878338,16.0251546 C6.76493366,15.1245245 7.28429948,13.7712699 7.75375627,12.8475467 L7.9401353,12.4765178 L8.04307267,12.7066789 C8.23647015,13.146987 8.98822489,14.5826068 9.28144042,15.0721801 C10.902704,17.7925451 12.7298423,19.7870175 14.3511059,20.6022033 C15.4997934,21.1803001 16.4480649,21.1279557 17.0937629,20.4474796 C17.5694584,19.9509784 17.8026271,19.2281649 17.8423984,18.1443297 C17.9055645,16.277639 17.2894999,13.8497864 16.0846648,11.2471962 C15.9247999,10.8984906 15.7649351,10.583655 15.7353016,10.5505549 C15.6619977,10.4720384 15.4756187,10.4189243 15.3492865,10.4450965 C15.2229542,10.4712686 15.069328,10.6229132 15.046713,10.7506949 C15.0201988,10.8723185 15.0498323,10.9546838 15.3461671,11.588204 C16.1720056,13.3463572 16.7506384,15.1930339 16.9736693,16.7795286 C17.0469732,17.302202 17.0602303,18.4353025 16.9939449,18.784008 C16.9276595,19.1357926 16.7974281,19.5006633 16.6578388,19.7108103 C16.4348078,20.0495089 16.1782442,20.1872976 15.7555771,20.1842185 C14.500833,20.1811394 12.5231877,18.4791794 10.7654542,15.8958334 C9.95677196,14.7026908 9.21125585,13.3555945 8.63496255,12.0385191 L8.42830798,11.5689598 L8.71762437,11.0863144 C9.09038243,10.4620314 9.48341602,9.87084854 9.9224595,9.26273075 L10.2718227,8.78008535 L10.8114641,8.78008535 C14.5133102,8.78008535 18.1878624,9.60835719 20.0656896,10.8600022 C20.4953751,11.1455866 20.9079044,11.5635714 21.0513929,11.8522349 C21.1512109,12.0562238 21.164468,12.1116472 21.164468,12.3448873 C21.1613487,12.5650413 21.1480916,12.6343206 21.0716684,12.7782674 C20.8423988,13.2185755 20.2590871,13.6558045 19.4504048,14.0037403 C19.0706283,14.1646221 18.9513146,14.2762386 18.9513146,14.4671414 C18.9513146,14.6441884 19.0246185,14.7727399 19.1642078,14.8381703 C19.3170542,14.9105286 19.3708623,14.9036007 19.6172882,14.8050702 C20.7792327,14.341669 21.6175484,13.6581138 21.8811305,12.9614725 C22.3669637,11.6798066 21.3485076,10.3850545 19.1018215,9.41899393 C17.1382132,8.57147786 14.2520677,8.04187653 11.2489479,7.97952521 L10.9190804,7.97259729 L11.2949578,7.54537529 C11.7277626,7.04887405 12.6830526,6.10590658 13.0924626,5.76797783 C14.064129,4.95972 14.9336378,4.4470536 15.6822732,4.23690656 C16.051912,4.13144816 16.5081117,4.13529701 16.7443997,4.23998564 C17.0641295,4.3816232 17.2871604,4.70030772 17.4103733,5.19296011 C17.4867965,5.49163063 17.4867965,6.40534686 17.4103733,6.84565494 C17.3238124,7.33214918 17.3339501,7.41759358 17.4673008,7.54845437 C17.5639996,7.64390577 17.6037708,7.66007093 17.7433601,7.66007093 C18.039695,7.66007093 18.1161182,7.55153345 18.2057985,7.01962282 C18.2525882,6.74712446 18.2689646,6.48694242 18.2689646,5.95195271 C18.2689646,5.32766975 18.2588268,5.20912527 18.1925414,4.94971299 C17.9827675,4.13144816 17.4704201,3.56643745 16.784171,3.40555565 C15.1933207,3.03760589 12.7594758,4.54866315 10.3396678,7.4145145 C10.1400317,7.64775462 9.95365264,7.87791566 9.92323933,7.9171739 C9.8733303,7.98953222 9.83979767,7.99569037 9.35708379,8.02571138 C9.07712534,8.04187653 8.56477798,8.08806269 8.21541478,8.12732093 C7.28975828,8.23277934 7.36306217,8.24201657 7.31003382,8.00569737 C7.17044451,7.34523526 7.1236548,6.8818341 7.12053548,6.16594859 C7.11741617,5.39079084 7.14393034,5.1606298 7.28663897,4.73032872 C7.43948536,4.27385549 7.69916828,3.96440821 8.02903576,3.8566405 C8.18890061,3.80044733 8.58193421,3.80737526 8.81432312,3.8666475 C9.20345757,3.96825705 9.7532367,4.25769033 10.252327,4.62871917 C10.5486618,4.84887321 10.6515992,4.88813144 10.8083447,4.83578713 C10.9877053,4.77959396 11.0945418,4.63179825 11.0945418,4.44782337 C11.0945418,4.31003465 11.0812847,4.28386249 10.934677,4.14530401 C10.7280224,3.94824305 10.1291141,3.55412114 9.76649379,3.37630441 C9.08102448,3.03760589 8.48133632,2.92906841 7.94247479,3.04453382 L7.9455941,3.04607335 Z M9.19409962,8.86860883 C9.19098031,8.88477399 8.97418797,9.20730735 8.7184042,9.58834319 C8.46262044,9.96937902 8.20917615,10.3542637 8.15614781,10.4427872 L8.05944907,10.603669 L7.97990656,10.3904429 C7.8800885,10.1310306 7.57049656,9.1257118 7.57049656,9.06259071 C7.57049656,9.00331847 7.71710433,8.98022539 8.80184586,8.86860883 C9.02799614,8.84551575 9.20813654,8.84551575 9.19487945,8.86860883 L9.19409962,8.86860883 Z M11.7277626,10.8992604 C11.4914746,10.9746978 11.2614251,11.1425075 11.1249551,11.3426476 C10.7155451,11.9376793 10.9151813,12.712837 11.55776,13.0245936 C11.7573961,13.1231241 11.8073051,13.1331311 12.0802451,13.1331311 C12.3531851,13.1331311 12.4030941,13.1231241 12.6027303,13.0245936 C13.4714593,12.6042996 13.4519636,11.3557336 12.5691976,10.9546838 C12.3360289,10.8492254 11.9601515,10.8269021 11.7269828,10.8984906 L11.7277626,10.8992604 Z" id="atom" fill="#000"/>
    </g>
</svg>

<svg xmlns="http://www.w3.org/2000/svg" viewBox="0 0 24 24">
    <path fill-rule="evenodd" d="M7.946 3.046c-1.158.25-1.771 1.574-1.641 3.536.04.568.033.512.153 1.238.05.293.083.539.076.546-.006.01-.21.06-.446.115-1.574.358-2.733.896-3.429 1.593-.47.467-.666.9-.659 1.449.003.308.107.647.297.973.163.28.745.847 1.128 1.104.802.532 1.049.608 1.268.39.094-.09.113-.137.113-.246 0-.21-.073-.311-.323-.447-1.099-.601-1.674-1.225-1.674-1.823 0-.218.076-.415.26-.65.482-.635 1.647-1.203 3.209-1.568.412-.096.492-.102.492-.033 0 .088.333 1.14.546 1.715l.213.578-.263.496a21.62 21.62 0 0 0-.456.924c-1.528 3.322-1.781 5.96-.676 7.045.26.256.473.375.822.463.806.204 1.87-.101 3.065-.88.417-.273.51-.375.51-.555 0-.217-.24-.427-.453-.394-.06.01-.294.137-.517.282-.492.325-1.045.595-1.445.713-.409.119-.852.125-1.105.016-.776-.339-.955-1.705-.472-3.6.226-.901.745-2.255 1.215-3.178l.186-.371.103.23c.193.44.945 1.876 1.238 2.365 1.622 2.72 3.449 4.715 5.07 5.53 1.149.578 2.097.526 2.743-.155.475-.496.709-1.219.748-2.303.064-1.866-.553-4.294-1.757-6.897-.16-.349-.32-.663-.35-.696-.073-.079-.26-.132-.386-.106-.126.026-.28.178-.302.306-.027.121.003.204.3.837.825 1.758 1.404 3.605 1.627 5.192.073.522.086 1.655.02 2.004-.066.352-.197.717-.336.927-.223.339-.48.476-.902.473-1.255-.003-3.233-1.705-4.99-4.288a24.628 24.628 0 0 1-2.131-3.857l-.207-.47.29-.483c.372-.624.765-1.215 1.204-1.823l.35-.483h.54c3.701 0 7.376.828 9.254 2.08.43.286.842.704.985.992.1.204.113.26.113.493-.003.22-.016.29-.092.433-.23.44-.813.878-1.622 1.226-.38.16-.499.272-.499.463 0 .177.074.306.213.371.153.073.207.066.453-.033 1.162-.463 2-1.147 2.264-1.844.486-1.281-.532-2.576-2.78-3.542-1.963-.848-4.849-1.377-7.852-1.44l-.33-.006.376-.428c.433-.496 1.388-1.44 1.797-1.777.972-.808 1.842-1.32 2.59-1.531.37-.106.826-.102 1.062.003.32.142.543.46.666.953.077.299.077 1.212 0 1.653-.086.486-.076.572.057.702.097.096.137.112.276.112.297 0 .373-.108.463-.64.047-.273.063-.533.063-1.068 0-.624-.01-.743-.076-1.002-.21-.819-.723-1.384-1.409-1.544-1.59-.368-4.025 1.143-6.444 4.009-.2.233-.386.463-.417.502-.05.073-.083.079-.566.109-.28.016-.792.062-1.142.101-.925.106-.852.115-.905-.121a8.086 8.086 0 0 1-.19-1.84c-.003-.775.024-1.005.167-1.436.152-.456.412-.766.742-.873.16-.057.553-.05.785.01.39.101.94.39 1.438.762.297.22.4.26.556.207a.393.393 0 0 0 .287-.388c0-.138-.014-.164-.16-.303-.207-.197-.806-.59-1.169-.769-.685-.338-1.285-.447-1.824-.331l.004.001zM9.194 8.87c-.003.016-.22.338-.476.72-.255.38-.509.765-.562.854l-.097.16-.08-.213c-.099-.259-.409-1.264-.409-1.327 0-.06.147-.083 1.232-.194.226-.023.406-.023.393 0zm2.534 2.03a1.2 1.2 0 0 0-.603.444c-.41.595-.21 1.37.433 1.682.2.098.25.108.522.108.273 0 .323-.01.523-.108.868-.42.849-1.67-.034-2.07a1.377 1.377 0 0 0-.842-.057v.001z"/>
</svg>
